assets/media/icons/time-filled.svg

<svg xmlns="http://www.w3.org/2000/svg" width="24" height="24" viewBox="0 0 24 24"><path d="M12 0c-6.627 0-12 5.373-12 12s5.373 12 12 12 12-5.373 12-12-5.373-12-12-12zm6 14h-7v-8h2v6h5v2z"/></svg>

<svg xmlns="http://www.w3.org/2000/svg" width="24" height="24" viewBox="0 0 24 24" fill="none">
<path d="M12 0C5.373 0 0 5.373 0 12C0 18.627 5.373 24 12 24C18.627 24 24 18.627 24 12C24 5.373 18.627 0 12 0ZM18 14H11V6H13V12H18V14Z" fill="#D24545"/>
</svg>
